X:1
T:Waiting for Me
T:Waiting for Me
T:Edward Milo Fuller
T:William Clark Martin, 1900
T:Public Domain Courtesy of the Cyber Hymnal™
T:Public Domain Courtesy of the Cyber Hymnal™
C:Edward Milo Fuller
Z:Public Domain
Z:Courtesy of the Cyber Hymnal™
%%score ( 1 2 ) ( 3 4 )
L:1/8
Q:1/4=88
M:6/8
K:F
V:1 treble 
V:2 treble 
V:3 bass 
V:4 bass 
V:1
 F/[FG]/ | [FA][F^G][FA] [EB][E=G][EA] | [CF]3- [CF]2 [FA]/[FB]/ | [Fc][F=B][Fc] [Fd][Fc][FA] | %4
w: 1.~Have you|heard of that hea- ven- ly|home, * Just be-|yond the rough wilds where we|
w: 2.~How I|long for that beau- ti- ful|home, * Just be-|yond the dark vale and the|
w: 3.~I will|wel- come the dawn of the|day, * When the|trum- pet shall call me a-|
 [EG]3- [EG]2 [EG]/[FA]/ | [GB][^FA][GB] [EG]2 [=FA]/[FB]/ | [Fc][F=B][Fc] [Fd]2 [Fd]/[Fd]/ | %7
w: roam, * Where the|an- gels of light, And the|saints robed in white, Lift their|
w: tomb! * For my|loved ones are there, In those|pal- ac- es fair, They are|
w: way * To my|sweet, peace- ful rest, In the|home of the blest, In the|
 [Fc][FA][Fc] [Ec][EB][EG] | F3- F2 ||"^Refrain" [FA] | A3 A2 [FA] | [EB][GB][FB] [EB]2 [CB] | %12
w: voic- es in song ’round the|throne? *||||
w: wait- ing for me by the|throne. *|Where|Je- sus is|wait- ing for me, Where|
w: light of that ra- di- ant|throne. *||||
 B3 B2 [Bd] | [Bd][Ac][^G=B] [Ac]2 [FA]/[=G_B]/ | [Ac][^G=B][Ac] [FA]2 [FA]/[Ac]/ | %15
w: |||
w: Je- sus is|wait- ing for me In those|man- sions so fair, He has|
w: |||
 [Bd][B^c][Bd] !fermata![Bf]2 [Bd] | [Ac]>[GB][FA] [Ac][GB][EG] | F3- [CF]2 |] %18
w: |||
w: gone to pre- pare, Where|Je- sus is wait- ing for|me. *|
w: |||
V:2
 F/ x/ | x6 | x6 | x6 | x6 | x6 | x6 | x6 | F3- F2 || x | (F>ED) (CD) x | x6 | (G>FE) (EG) x | x6 | %14
 x6 | x6 | x6 | FED x2 |] %18
V:3
 [F,A,]/[F,B,]/ | [F,C][F,=B,][F,C] [C,C][C,C][C,_B,] | [F,A,]3- [F,A,]2 F,/[F,G,]/ | %3
 [F,A,][F,^G,][F,A,] [F,B,][F,A,][F,C] | [C,C]3- [C,C]2 [C,C]/[C,C]/ | %5
 [C,C][C,C][C,C] [C,C]2 F,/[F,G,]/ | [F,A,][F,^G,][F,A,] [B,,B,]2 [B,,B,]/[B,,B,]/ | %7
 [C,A,][C,C][C,A,] [C,G,][C,C][C,B,] | [F,A,]3- [F,A,]2 || [F,C] | [F,C]3 [F,C]2 [F,C] | %11
 [G,C][G,C][G,C] [C,C]2 [C,C] | [C,C]3 [C,C]2 [C,C] | [F,C][F,C][F,C] [F,C]2 [F,C]/[F,C]/ | %14
 [F,F][F,D][F,C] [F,C]2 [F,F]/[F,F]/ | [B,F][B,E][B,F] !fermata![B,D]2 [B,F] | %16
 [F,F]>[F,C][F,C] [C,C][C,C][C,B,] | (A,CB, [F,A,]2) |] %18
V:4
 x | x6 | x5 F,/ x/ | x6 | x6 | x5 F,/ x/ | x6 | x6 | x5 || x | x6 | x6 | x6 | x6 | x6 | x6 | x6 | %17
 F,3- x2 |] %18

